svg/u1f972.svg

<svg viewBox="0 0 128 128" xmlns="http://www.w3.org/2000/svg">
  <g id="facial_expressions">
    <radialGradient id="face_1_" cx="63.6" cy="-62.06" gradientTransform="matrix(1 0 0 1 0 124.96)" gradientUnits="userSpaceOnUse" r="56.9597">
      <stop offset="0.5" stop-color="#FDE030"/>
      <stop offset="0.92" stop-color="#F7C02B"/>
      <stop offset="1" stop-color="#F4A223"/>
    </radialGradient>
    <path id="face" d="M63.6,118.8c-27.9,0-58-17.5-58-55.9S35.7,7,63.6,7c15.5,0,29.8,5.1,40.4,14.4 c11.5,10.2,17.6,24.6,17.6,41.5s-6.1,31.2-17.6,41.4C93.4,113.6,79,118.8,63.6,118.8z" fill="url(#face_1_)"/>
    <path id="mouth" d="M63,91.61c-9.07,0.07-17.73-3.74-23.8-10.48c-0.46-0.53-0.57-1.28-0.28-1.92 c0.29-0.65,0.93-1.07,1.64-1.08l0,0c0.32,0,0.64,0.09,0.92,0.25c4.82,2.77,12.88,6.21,21.52,6.21h0.14c8.63,0,16.7-3.44,21.51-6.21 c0.28-0.16,0.6-0.25,0.92-0.25l0,0c0.71,0.01,1.35,0.43,1.64,1.08c0.3,0.64,0.19,1.39-0.28,1.92 c-6.07,6.74-14.75,10.56-23.82,10.48" fill="#422B0D"/>
    <path d="M44,40.94L44,40.94c-4.19,0-8,3.54-8,9.42s3.81,9.41,8,9.41l0,0c4.2,0,8-3.54,8-9.41 S48.24,40.94,44,40.94z" fill="#422B0D"/>
    <g id="peepers">
      <path d="M43.65,44.87L43.65,44.87c-1.42-0.68-3.13-0.08-3.82,1.34c-0.53,1.11-0.29,2.44,0.6,3.3l0,0 c1.42,0.68,3.13,0.08,3.82-1.34C44.78,47.06,44.54,45.73,43.65,44.87z" fill="#896024"/>
    </g>
    <path d="M82.4,40.94L82.4,40.94c-4.19,0-8,3.54-8,9.42s3.81,9.41,8,9.41l0,0c4.19,0,8-3.54,8-9.41 S86.59,40.94,82.4,40.94z" fill="#422B0D"/>
    <g id="peepers-2">
      <path d="M82,44.87L82,44.87c-1.42-0.68-3.13-0.08-3.82,1.34c-0.53,1.11-0.29,2.44,0.6,3.3l0,0 c1.42,0.68,3.13,0.08,3.82-1.34C83.13,47.06,82.89,45.73,82,44.87z" fill="#896024"/>
    </g>
    <radialGradient id="SVGID_1_" cx="37.82" cy="-769.175" gradientTransform="matrix(1 0 0 -1.54 0 -1115.13)" gradientUnits="userSpaceOnUse" r="26.42">
      <stop offset="0.46" stop-color="#29B6F6"/>
      <stop offset="1" stop-color="#1E88E5"/>
    </radialGradient>
    <path d="M37,104.5c-6.5,0-11.5-6.3-11.5-11.7c0-3.8,1.7-8.2,4.1-14.3c0.3-0.9,0.7-1.8,1.1-2.8 c1.4-3.62,3-7.16,4.8-10.6c0.36-0.69,1.18-0.99,1.9-0.7c0.3,0.15,0.55,0.4,0.7,0.7c1.5,3.1,3.2,6.9,4.9,10.8 c4.2,9.4,5.4,13.2,5.4,17C48.5,98.2,43.4,104.5,37,104.5z" fill="url(#SVGID_1_)"/>
    <path d="M44,97.29c-1.47,2.27-4.8,1.84-4.8-1.93c0-2.41,0.49-14.79,2.56-13.06 C45.16,85.12,46.12,94.08,44,97.29z" fill="#81D4FA"/>
    <path d="M111.49,29.67c5.33,8.6,8.11,18.84,8.11,30.23c0,16.9-6.1,31.2-17.6,41.4 c-10.6,9.3-25,14.5-40.4,14.5c-18.06,0-37-7.35-48.18-22.94c10.76,17.66,31,25.94,50.18,25.94c15.4,0,29.8-5.2,40.4-14.5 c11.5-10.2,17.6-24.5,17.6-41.4C121.6,50.16,118.13,38.84,111.49,29.67z" fill="#EB8F00"/>
  </g>
</svg>

<svg viewBox="0 0 128 128" xmlns="http://www.w3.org/2000/svg">
  <defs>
    <radialGradient id="face_1_" cx="63.6" cy="62.9" gradientUnits="userSpaceOnUse" r="56.9597">
      <stop offset="0.5" stop-color="#FDE030"/>
      <stop offset="0.92" stop-color="#F7C02B"/>
      <stop offset="1" stop-color="#F4A223"/>
    </radialGradient>
    <radialGradient id="SVGID_1_" cx="37.82" cy="-45.06461" gradientTransform="matrix(1 0 0 -1.54 0 0)" gradientUnits="userSpaceOnUse" r="26.42">
      <stop offset="0.46" stop-color="#29B6F6"/>
      <stop offset="1" stop-color="#1E88E5"/>
    </radialGradient>
  </defs>
  <path id="face" d="M63.6,118.8 C35.7,118.8 5.6,101.3 5.6,62.9 C5.6,24.5 35.7,7 63.6,7 C79.1,7 93.4,12.1 104,21.4 C115.5,31.6 121.6,46 121.6,62.9 C121.6,79.8 115.5,94.1 104,104.3 C93.4,113.6 79,118.8 63.6,118.8 Z" fill="url(#face_1_)"/>
  <path id="mouth" d="M63,91.61 C53.93,91.68 45.27,87.87 39.2,81.13 C38.74,80.6 38.63,79.85 38.92,79.21 C39.21,78.56 39.85,78.14 40.56,78.13 L40.56,78.13 C40.88,78.13 41.2,78.22 41.48,78.38 C46.3,81.15 54.36,84.59 63,84.59 L63.14,84.59 C71.77,84.59 79.84,81.15 84.65,78.38 C84.93,78.22 85.25,78.13 85.57,78.13 L85.57,78.13 C86.28,78.14 86.92,78.56 87.21,79.21 C87.51,79.85 87.4,80.6 86.93,81.13 C80.86,87.87 72.18,91.69 63.11,91.61" fill="#422B0D"/>
  <path d="M44,40.94 L44,40.94 C39.81,40.94 36,44.48 36,50.36 C36,56.24 39.81,59.77 44,59.77 L44,59.77 C48.2,59.77 52,56.23 52,50.36 C52,44.49 48.24,40.94 44,40.94 Z" fill="#422B0D"/>
  <path d="M43.65,44.87 L43.65,44.87 C42.23,44.19 40.52,44.79 39.83,46.21 C39.3,47.32 39.54,48.65 40.43,49.51 L40.43,49.51 C41.85,50.19 43.56,49.59 44.25,48.17 C44.78,47.06 44.54,45.73 43.65,44.87 Z" fill="#896024"/>
  <path d="M82.4,40.94 L82.4,40.94 C78.21,40.94 74.4,44.48 74.4,50.36 C74.4,56.24 78.21,59.77 82.4,59.77 L82.4,59.77 C86.59,59.77 90.4,56.23 90.4,50.36 C90.4,44.49 86.59,40.94 82.4,40.94 Z" fill="#422B0D"/>
  <path d="M82,44.87 L82,44.87 C80.58,44.19 78.87,44.79 78.18,46.21 C77.65,47.32 77.89,48.65 78.78,49.51 L78.78,49.51 C80.2,50.19 81.91,49.59 82.6,48.17 C83.13,47.06 82.89,45.73 82,44.87 Z" fill="#896024"/>
  <path d="M37,104.5 C30.5,104.5 25.5,98.2 25.5,92.8 C25.5,89 27.2,84.6 29.6,78.5 C29.9,77.6 30.3,76.7 30.7,75.7 C32.1,72.08 33.7,68.54 35.5,65.1 C35.86,64.41 36.68,64.11 37.4,64.4 C37.7,64.55 37.95,64.8 38.1,65.1 C39.6,68.2 41.3,72 43,75.9 C47.2,85.3 48.4,89.1 48.4,92.9 C48.5,98.2 43.4,104.5 37,104.5 Z" fill="url(#SVGID_1_)"/>
  <path d="M44,97.29 C42.53,99.56 39.2,99.13 39.2,95.36 C39.2,92.95 39.69,80.57 41.76,82.3 C45.16,85.12 46.12,94.08 44,97.29 Z" fill="#81D4FA"/>
  <path d="M111.49,29.67 C116.82,38.27 119.6,48.51 119.6,59.9 C119.6,76.8 113.5,91.1 102,101.3 C91.4,110.6 77,115.8 61.6,115.8 C43.54,115.8 24.6,108.45 13.42,92.86 C24.18,110.52 44.42,118.8 63.6,118.8 C79,118.8 93.4,113.6 104,104.3 C115.5,94.1 121.6,79.8 121.6,62.9 C121.6,50.16 118.13,38.84 111.49,29.67 Z" fill="#EB8F00"/>
</svg>
